icons/1_Primary/authentik.svg

<svg width="1024" height="1024" viewBox="0 0 1024 1024" fill="none" xmlns="http://www.w3.org/2000/svg">
<g clip-path="url(#clip0_2_1533)">
<path d="M512 1024C794.77 1024 1024 794.77 1024 512C1024 229.23 794.77 0 512 0C229.23 0 0 229.23 0 512C0 794.77 229.23 1024 512 1024Z" fill="#F8C18C"/>
<path d="M742.32 379.81H742.41C740.893 366.317 736.123 353.393 728.51 342.15C716.468 324.21 698.053 311.522 677 306.66C676.75 306.589 676.496 306.532 676.24 306.49C670.181 305.152 663.994 304.482 657.79 304.49H413C410.86 304.49 408.74 304.6 406.62 304.76H406.45L405.61 304.86C404.1 304.99 402.61 305.16 401.09 305.37L399.93 305.55C398.443 305.784 396.966 306.054 395.5 306.36L394.92 306.47C394.269 306.586 393.625 306.736 392.99 306.92C392.23 307.1 391.48 307.31 390.72 307.52C390.16 307.67 389.6 307.8 389.04 307.96C388.74 308.05 388.44 308.16 388.14 308.25C387.37 308.48 386.62 308.74 385.86 308.99C384.86 309.32 383.86 309.66 382.91 309.99C382.37 310.2 381.83 310.42 381.29 310.63C380.55 310.93 379.8 311.2 379.06 311.52L376.83 312.52C374.493 313.595 372.216 314.797 370.01 316.12C368.82 316.8 367.54 317.61 366.53 318.26C365.52 318.91 364.53 319.57 363.53 320.26C362.91 320.71 362.32 321.2 361.71 321.67C360.94 322.25 360.17 322.83 359.42 323.44C358.67 324.05 357.67 324.89 356.82 325.64C356.307 326.094 355.797 326.554 355.29 327.02C354.67 327.59 354.01 328.13 353.41 328.72C352.903 329.177 352.432 329.672 352 330.2C351.11 331.09 350.3 331.99 349.44 332.97C348.58 333.95 347.56 335.05 346.88 335.97C346.2 336.89 345.63 337.58 344.8 338.68C343.97 339.78 343.16 340.91 342.39 342.01V342.16C341.623 343.307 340.886 344.474 340.18 345.66C339.49 346.8 338.83 347.97 338.18 349.14C335.902 353.337 333.985 357.719 332.45 362.24C332.26 362.76 332.1 363.24 331.91 363.85V364.01C331.48 365.383 331.087 366.767 330.73 368.16L330.68 368.35C330.21 370.2 329.78 372.07 329.43 373.95C329.08 375.85 328.78 377.77 328.56 379.7C328.173 382.953 327.983 386.225 327.99 389.5V489.42C327.2 488.29 326.39 487.16 325.55 486.03C312.27 468.03 292.35 449.91 270.29 449.91C257.836 449.889 245.607 453.231 234.895 459.583C224.183 465.935 215.385 475.062 209.43 486C184.18 530 219 589.29 270.2 588C309.74 588 342.37 529.29 342.37 518.9C342.37 515.05 337.87 504.56 330.21 492.9H469.41V410.15H497.28V444.42H516.28V410.14H546.65V430.3H565.65V410.14H601.53V557.4H327.93V634.57C327.985 657.117 336.975 678.723 352.93 694.655C368.884 710.587 390.503 719.547 413.05 719.57H449.17V636.19H621.7V719.56H657.76C680.323 719.56 701.964 710.612 717.938 694.677C733.912 678.743 742.914 657.123 742.97 634.56V389.57C742.948 386.307 742.731 383.048 742.32 379.81ZM241.67 486C255.93 473.75 276.55 470.22 291.59 486.06C301.577 495.48 309.883 506.536 316.15 518.75C271.77 611.53 194 532.48 241.67 486Z" fill="white"/>
</g>
<defs>
<clipPath id="clip0_2_1533">
<rect width="1024" height="1024" fill="white"/>
</clipPath>
</defs>
</svg>

<svg xmlns="http://www.w3.org/2000/svg" viewBox="0 0 1024 1024">
   <circle cx="512" cy="512" r="512" style="fill:#fd4b2d"/>
   <path d="M742.32 379.81h.09a83.87 83.87 0 0 0-13.9-37.66A85.1 85.1 0 0 0 677 306.66a6.55 6.55 0 0 0-.76-.17 85 85 0 0 0-18.45-2H413c-2.14 0-4.26.11-6.38.27h-.17l-.84.1c-1.51.13-3 .3-4.52.51l-1.16.18q-2.23.35-4.43.81l-.58.11a18.44 18.44 0 0 0-1.93.45c-.76.18-1.51.39-2.27.6-.56.15-1.12.28-1.68.44-.3.09-.6.2-.9.29-.77.23-1.52.49-2.28.74-1 .33-2 .67-2.95 1-.54.21-1.08.43-1.62.64-.74.3-1.49.57-2.23.89l-2.23 1a70.73 70.73 0 0 0-6.82 3.6c-1.19.68-2.47 1.49-3.48 2.14s-2 1.31-3 2c-.62.45-1.21.94-1.82 1.41-.77.58-1.54 1.16-2.29 1.77s-1.75 1.45-2.6 2.2q-.77.68-1.53 1.38c-.62.57-1.28 1.11-1.88 1.7a13.52 13.52 0 0 0-1.41 1.48c-.89.89-1.7 1.79-2.56 2.77s-1.88 2.08-2.56 3-1.25 1.61-2.08 2.71-1.64 2.23-2.41 3.33v.15q-1.15 1.72-2.21 3.5c-.69 1.14-1.35 2.31-2 3.48a84.23 84.23 0 0 0-5.73 13.1c-.19.52-.35 1-.54 1.61v.16a82.16 82.16 0 0 0-1.18 4.15l-.05.19c-.47 1.85-.9 3.72-1.25 5.6-.35 1.9-.65 3.82-.87 5.75a81.62 81.62 0 0 0-.57 9.8v99.92c-.79-1.13-1.6-2.26-2.44-3.39-13.28-18-33.2-36.12-55.26-36.12A69.16 69.16 0 0 0 209.43 486c-25.25 44 9.57 103.29 60.77 102 39.54 0 72.17-58.71 72.17-69.1 0-3.85-4.5-14.34-12.16-26h139.2v-82.75h27.87v34.27h19v-34.28h30.37v20.16h19v-20.16h35.88V557.4h-273.6v77.17a85.21 85.21 0 0 0 85.12 85h36.12v-83.38H621.7v83.37h36.06a85.21 85.21 0 0 0 85.21-85V389.57a81.63 81.63 0 0 0-.65-9.76ZM241.67 486c14.26-12.25 34.88-15.78 49.92.06a120.64 120.64 0 0 1 24.56 32.69C271.77 611.53 194 532.48 241.67 486Z" style="fill:#fff"/>
</svg>
